actions/22x22-light/layer-new.svg

<svg viewBox="0 0 22 22" xmlns="http://www.w3.org/2000/svg"><path d="m11 3-8.4335938 4.2167969 8.4335938 4.2167971 8.433594-4.2167971zm-6.0839844 6.8027344-2.3496094 1.1757816 8.4335938 4.216796 8.433594-4.216796-2.34961-1.1757816-6.083984 3.0410156zm0 3.5253906-2.9101562 1.455078 8.9941406 4.496094 8.992188-4.496094-2.910157-1.455078-6.082031 3.041016zm0 .558594 6.0839844 3.042969.111328-.056641 5.970703-2.986328 1.792969.896484-7.875 3.9375-7.875-3.9375z" fill="#4d4d4d"/></svg>

<svg xmlns="http://www.w3.org/2000/svg" viewBox="0 0 22 22">
  <defs id="defs3051">
    <style type="text/css" id="current-color-scheme">
      .ColorScheme-Text {
        color:#4d4d4d
      }
      </style>
  </defs>
 <path 
     style="fill:currentColor;fill-opacity:1;stroke:none"      
	 class="ColorScheme-Text"
        d="M 11 3 L 2.5664062 7.2167969 L 11 11.433594 L 19.433594 7.2167969 L 11 3 z M 4.9160156 9.8027344 L 2.5664062 10.978516 L 11 15.195312 L 19.433594 10.978516 L 17.083984 9.8027344 L 11 12.84375 L 4.9160156 9.8027344 z M 4.9160156 13.328125 L 2.0058594 14.783203 L 11 19.279297 L 19.992188 14.783203 L 17.082031 13.328125 L 11 16.369141 L 4.9160156 13.328125 z M 4.9160156 13.886719 L 11 16.929688 L 11.111328 16.873047 L 17.082031 13.886719 L 18.875 14.783203 L 11 18.720703 L 3.125 14.783203 L 4.9160156 13.886719 z "
     />
</svg>
